static/images/svgs/magic-icon.svg

<?xml version="1.0" encoding="UTF-8"?>
<svg xmlns="http://www.w3.org/2000/svg" xmlns:xlink="http://www.w3.org/1999/xlink" width="64px" height="px" viewBox="0 0 64 64" version="1.1">
<g id="surface1">
<path style=" stroke:none;fill-rule:nonzero;fill:rgb(93.72549%,26.666667%,26.666667%);fill-opacity:1;" d="M 55.179688 60.421875 C 54.914062 60.421875 54.660156 60.316406 54.46875 60.128906 L 24.769531 30.429688 C 24.582031 30.242188 24.472656 29.988281 24.472656 29.71875 C 24.472656 29.453125 24.582031 29.199219 24.769531 29.011719 L 29 24.769531 C 29.1875 24.582031 29.445312 24.472656 29.710938 24.472656 C 29.976562 24.472656 30.230469 24.582031 30.421875 24.769531 L 60.121094 54.46875 C 60.507812 54.859375 60.507812 55.488281 60.121094 55.878906 L 55.871094 60.128906 C 55.6875 60.3125 55.4375 60.417969 55.179688 60.421875 Z M 26.890625 29.71875 L 55.179688 58 L 58 55.179688 L 29.71875 26.890625 Z M 26.890625 29.71875 "/>
<path style=" stroke:none;fill-rule:nonzero;fill:rgb(93.72549%,26.666667%,26.666667%);fill-opacity:1;" d="M 25.480469 30.71875 C 25.214844 30.722656 24.957031 30.617188 24.769531 30.429688 L 17.699219 23.359375 C 17.511719 23.171875 17.402344 22.917969 17.402344 22.648438 C 17.402344 22.382812 17.511719 22.128906 17.699219 21.941406 L 21.941406 17.699219 C 22.128906 17.511719 22.382812 17.402344 22.648438 17.402344 C 22.917969 17.402344 23.171875 17.511719 23.359375 17.699219 L 30.429688 24.769531 C 30.621094 24.957031 30.726562 25.214844 30.726562 25.480469 C 30.726562 25.746094 30.621094 26.003906 30.429688 26.191406 L 26.191406 30.429688 C 26 30.617188 25.746094 30.722656 25.480469 30.71875 Z M 19.820312 22.648438 L 25.480469 28.308594 L 28.308594 25.480469 L 22.648438 19.820312 Z M 19.820312 22.648438 "/>
<path style=" stroke:none;fill-rule:nonzero;fill:rgb(93.72549%,26.666667%,26.666667%);fill-opacity:1;" d="M 30 10 L 26 10 C 25.449219 10 25 9.550781 25 9 C 25 8.449219 25.449219 8 26 8 L 30 8 C 30.550781 8 31 8.449219 31 9 C 31 9.550781 30.550781 10 30 10 Z M 30 10 "/>
<path style=" stroke:none;fill-rule:nonzero;fill:rgb(93.72549%,26.666667%,26.666667%);fill-opacity:1;" d="M 28 12 C 27.449219 12 27 11.550781 27 11 L 27 7 C 27 6.449219 27.449219 6 28 6 C 28.550781 6 29 6.449219 29 7 L 29 11 C 29 11.550781 28.550781 12 28 12 Z M 28 12 "/>
<path style=" stroke:none;fill-rule:nonzero;fill:rgb(93.72549%,26.666667%,26.666667%);fill-opacity:1;" d="M 15 13 L 9 13 C 8.449219 13 8 12.550781 8 12 C 8 11.449219 8.449219 11 9 11 L 15 11 C 15.550781 11 16 11.449219 16 12 C 16 12.550781 15.550781 13 15 13 Z M 15 13 "/>
<path style=" stroke:none;fill-rule:nonzero;fill:rgb(93.72549%,26.666667%,26.666667%);fill-opacity:1;" d="M 12 16 C 11.449219 16 11 15.550781 11 15 L 11 9 C 11 8.449219 11.449219 8 12 8 C 12.550781 8 13 8.449219 13 9 L 13 15 C 13 15.550781 12.550781 16 12 16 Z M 12 16 "/>
<path style=" stroke:none;fill-rule:nonzero;fill:rgb(93.72549%,26.666667%,26.666667%);fill-opacity:1;" d="M 11 29 L 7 29 C 6.449219 29 6 28.550781 6 28 C 6 27.449219 6.449219 27 7 27 L 11 27 C 11.550781 27 12 27.449219 12 28 C 12 28.550781 11.550781 29 11 29 Z M 11 29 "/>
<path style=" stroke:none;fill-rule:nonzero;fill:rgb(93.72549%,26.666667%,26.666667%);fill-opacity:1;" d="M 9 31 C 8.449219 31 8 30.550781 8 30 L 8 26 C 8 25.449219 8.449219 25 9 25 C 9.550781 25 10 25.449219 10 26 L 10 30 C 10 30.550781 9.550781 31 9 31 Z M 9 31 "/>
</g>
</svg>

<svg id="Layer_1" data-name="Layer 1" xmlns="http://www.w3.org/2000/svg" viewBox="0 0 64 64"> <defs> <style> .fill { fill: #ef4444; } </style> </defs> <path class="fill" d="M55.18,60.42a1,1,0,0,1-.71-.29l-29.7-29.7a1,1,0,0,1,0-1.42L29,24.77a1,1,0,0,1,1.42,0l29.7,29.7a1,1,0,0,1,0,1.41l-4.25,4.25A1,1,0,0,1,55.18,60.42ZM26.89,29.72,55.18,58,58,55.18,29.72,26.89Z" /> <path class="fill" d="M25.48,30.72a1,1,0,0,1-.71-.29L17.7,23.36a1,1,0,0,1,0-1.42l4.24-4.24a1,1,0,0,1,1.42,0l7.07,7.07a1,1,0,0,1,0,1.42l-4.24,4.24A1,1,0,0,1,25.48,30.72Zm-5.66-8.07,5.66,5.66,2.83-2.83-5.66-5.66Z" /> <path class="fill" d="M30,10H26a1,1,0,0,1,0-2h4a1,1,0,0,1,0,2Z" /> <path class="fill" d="M28,12a1,1,0,0,1-1-1V7a1,1,0,0,1,2,0v4A1,1,0,0,1,28,12Z" /> <path class="fill" d="M15,13H9a1,1,0,0,1,0-2h6a1,1,0,0,1,0,2Z" /> <path class="fill" d="M12,16a1,1,0,0,1-1-1V9a1,1,0,0,1,2,0v6A1,1,0,0,1,12,16Z" /> <path class="fill" d="M11,29H7a1,1,0,0,1,0-2h4a1,1,0,0,1,0,2Z" /> <path class="fill" d="M9,31a1,1,0,0,1-1-1V26a1,1,0,0,1,2,0v4A1,1,0,0,1,9,31Z" /> </svg>
